X:90
T: Scully Casey's
S: Seamus Connolly
Z: B.Black
R: reel
M: 4/4
L: 1/8
K: Dmix
B2 AG FDDE | (3FGA DF ADFA | B2 AG FDDE | EC C2 EFGA |
B2 AG FDDE | (3FGA DF ADFA | B2 AG FDDE | E2 ED EFGA ||
d^cde f2 ed | gefd eBBA | Add^c defd | (3gag fg efge |
d^cde f2 ed | gefd edBe | (3d^cB cA Bcde | f2 af fedA ||
